X:1
T:O Iesu, splendor aeternae gloriae
T:Jan Baptist Verrijt
T:O Iesu, splendor aeternae gloriae
C:Jan Baptist Verrijt
%%score [ 1 2 3 ] 4
L:1/8
Q:1/4=80
M:2/2
K:C
V:1 alto nm="Altus" snm="A"
V:2 tenor nm="Tenor" snm="T"
V:3 bass nm="Bassus" snm="B"
V:4 bass nm="Basso Continuo" snm="BC"
V:1
 z8 | z8 | z8 | z8 | z8 | z8 | z8 | z8 | z8 | z8 | z8 | z8 | z8 | z8 | z8 | %15
w: |||||||||||||||
 z A,/B,/^C B,/A,/ D D/E/^FE/D/ | GG/A/ BE/^F/ ^D4 | z4 z AEE/A/ | ^F2 F2 z GDD/G/ | %19
w: O, * * * * * o * * * *||so- la- men, so-|la- men, so- la- men, so-|
 E2 E2 z C/D/ED/C/ | F4 z GDD/G/ | E2 E2 z4 | z C/D/ED/C/ G B,/C/DC/B,/ | ^F4 z AEE/A/ | %24
w: la- men, o, * * * *|* so- la- men, so-|la- men,|o, * * * * * * * * * *|* so- la- men, so-|
 F>E F4 E>D | D8 | C8 |[M:3/4] z C/B,/ C>D E>F | G2 G2 z2 | z B,/A,/ B,>C D>E | F2 F2 z2 | %31
w: la- men a- ni- mae|me-|ae,|ve- ni, ve- ni, ve- ni|Ie- su,|ve- ni, ve- ni, ve- ni|Ie- su,|
 z C/B,/ C>D E>F | G6- | G2 ^F3 G | E2 x4 | z6 | z6 | z6 | E>E FF D>D | G/A/F/G/ E/F/D/E/ CC | %40
w: ve- ni, ve- ni, ve- ni|Ie-||su,||||nul- la e- rit lae- ta|di- * * * * * * * * es.|
 z2 z2 z D/D/ | GG/>F/ EE/>D/ CC | z C FE/>D/ D2 | E2 z2 z2 | z A,2 B, C/B,/C/D/ | %45
w: Ve- ni,|ve- ni lae- ti- ti- a me- a,|lae- ti- ti- a me-|a,|ve- ni, ve- * * *|
 B, A2 G F/E/F/G/ | EE>EF DD |[M:2/2] DC/D/B,C/D/ E4- | ED/E/CD/E/ F4- | FE/F/DE/F/ G4- | %50
w: ni, ve- ni, ve- * * *|ni gau- di- um me- um,|gau- * * * * * *|||
 G2 F>E E4 | DD A2 FFE>D | E4 z2 E>F | G4 z2 G>G | G2 F/E/G/F/ E3 D | D4 z4 | z2 C3 ED>C | %57
w: * di- um me-|um. Da, da mi- hi, Chri- ste|mi, Chri- ste|mi, in te|re- qui- * * * e- sce-|re,|in a- mo- re|
 D2 D2 z4 | z2 E3 GF>E | D2 D2 z G2 F/G/ | E>DD>C C>D B,>C | A,2 A,2 z A2 G/A/ | F>EE>D D>CC>B, | %63
w: tu- o,|in a- mo- re|tu- o, o Chri- ste|mi, ut dis- cam de- * gus- *|ta- re, o Chri- ste|mi, ut dis- cam de- gus- ta- re,|
 B,<C D<C B,4 | A,4 z4 | z8 | z G2 F/G/ E E2 D/E/ | C4 z F2 E/F/ | D>CC>B, B,3 ^C/D/ | ^C2 D4 C2 | %70
w: de- * gus- * ta-|re,||o Chri- ste mi, o Chri- ste|mi, o Chri- ste|mi, ut dis- cam de- * *|gus- ta- re,|
 z8 | z2 G/F/G/F/ E2 E2 | z4 z2 A/G/A/G/ | F2 F2 z4 | z2 G/F/G/F/ E2 E2 | z8 | %76
w: |a- * * * ma- re,|a- * * *|ma- re,|a- * * * ma- re,||
 z2 G3 ^F G/=F/ G/F/ | E4 z2 A2- | A^G A/=G/ A/G/ F4 | z2 G3 ^F G/=F/ G/F/ | E4 z2 A2- | %81
w: quam su- a- * ve *|sit, quam|* su- a- * ve * sit,|quam su- a- * ve *|sit, quam|
 A^G A/=G/ A/G/ ^F2 F/E/F/E/ | D2 D2 z2 D2- | DC D/C/ D/C/ B,4- | B,2 C/B,/D/C/ B,4 | %85
w: * su- a- * ve * sit a- * * *|ma- re, quam|* su- a- * ve * sit|* a- * * * ma-|
 A,2 E>E FFD>D | C2 A,2 z D/C/ B,/C/D/B,/ | C>D E3 ^F ^D2 | E4 z4 | z2 E>E FFD>D | %90
w: re. Al- le- lu- ya, al- le-|lu- ya, al- le- lu- ya, al- le-|lu- ya, al- le- lu-|ya,|al- le- lu- ya, al- le-|
 E2 C2 z D/C/ B,/C/D/B,/ | C2 A,2 D>DE>E | C>C D2 B,2 z C/B,/ | A,/B,/C/A,/ B,2 G,2 z E/E/ | %94
w: lu- ya, al- le- lu- ya, al- le-|lu- ya, al- le- lu- ya,|al- le- lu- ya, al- le-|lu- ya, al- le- lu- ya, al- le-|
 FFD>D E2 C2 | z D/C/ B,/C/D/B,/ C2 A,2 | D>DE>E C>C D2 | B,2 z C/B,/ A,/B,/C/A,/ B,2 | %98
w: lu- ya, al- le- lu- ya,|al- le- lu- ya, al- le- lu- ya,|al- le- lu- ya, al- le- lu-|ya, al- le- lu- ya, al- le- lu-|
 ^G,E/D/ C/D/E/C/ B,4 | A,8 | z8 | z8 | z8 |] %103
w: ya, al- le- lu- ya, al- le- lu-|ya.||||
V:2
 z8 | A,4 z/ E,/F,/G,/ A,/B,/C/D/ | E<D E/D/E/B,/ C>D E/B,/C/A,/ | B,4 z4 | %4
w: |O, o * * * * * *|* * * * * * Ie- * * * * *|su,|
 B,4 z/ ^F,/G,/A,/ B,/G,/A,/F,/ | G,>A, B,/A,/B,/E,/ ^F,4 | z B,B,>^C D2 A,>B, | %7
w: O, o * * * * * *|Ie- * * * * * su,|o Ie- su, splen- dor ae-|
 C B,/C/ D/C/B,/A,/ B, A,/B,/ C/B,/A,/G,/ | A,3 G, G,4 | z CC>D E2 A,>B, | %10
w: ter- nae * * * * * * glo- * * * * *|* ri- ae,|o Ie- su, splen- dor ae-|
 B, A,/B,/ C/B,/D/C/ B,3 A, | A,4 z D,/E,/^F,E,/D,/ | A, A,/B,/ ^CB,/A,/ D E/F/ GD/E/ | ^C4 z4 | %14
w: ter- nae * * * * * glo- ri-|ae, O, * * * *|* o * * * * * * * * * *||
 z4 z EB,B,/E/ | ^C2 C2 z4 | z8 | z EB,B,/E/ ^C2 C2 | z4 z G,/A,/B,A,/G,/ | %19
w: so- la- men, so-|la- men,||so- la- men, so- la- men,|o, * * * *|
 CE,/F,/ G,F,/E,/ A, A,/B,/CB,/A,/ | D4 z4 | z CG,G,/C/ A,2 A,2 | z4 z G,/A,/B,A,/G,/ | %23
w: * * * * * * * o, * * * *||so- la- men, so- la- men,|o, * * * *|
 D4 z A,/B,/^CB,/A,/ | DDA,A,/D/ B,B, C2- | C2 CC C3 B, | C8 |[M:3/4] z6 | z6 | %29
w: * o, * * * *|* so- la- men, so- la- men a-|* ni- mae me- *|ae,|||
 z G,/^F,/ G,>A, B,>C | D2 D2 z2 | z A,/^G,/ A,>B, C>D | E6- | E4 ^D2 | E2 z2 z2 | z6 | z6 | %37
w: ve- ni, ve- ni, ve- ni|Ie- su,|ve- ni, ve- ni, ve- ni|Ie-||su,|||
 z2 B,>B, CC | A,A, D/E/C/D/ B,/C/A,/B,/ | G,G, z2 z2 | z A,/A,/ DD/>C/ B,B,/>A,/ | %41
w: nul- la e- rit|lae- ta di- * * * * * * *|* es.|Ve- ni, ve- ni lae- ti- ti- a|
 G,G, z2 z C/C/ | FF/>E/ DC/C/ C>B, | C2 z2 z2 | z C2 B, A,/G,/A,/B,/ | G, C2 C A,/G,/A,/B,/ | %46
w: me- a, Ve- ni,|ve- ni lae- ti- ti- a me- *|a,|ve- ni, ve- * * *|ni, ve- ni, ve- * * *|
 G,G,>CA, B,B, |[M:2/2] z4 B,A,/B,/G,A,/B,/ | C4- CB,/C/A,B,/C/ | D6 ^C>B, | ^CD/E/ D4 C2 | D4 z4 | %52
w: ni gau- di- um me- um,|gau- * * * * *||* di- um|me- * * * *|um.|
 z A, E2 C>B,B,>A, | B,2 B,>A, B,2 B,>B, | ^C2 D2 D3 C | D4 z4 | z2 A,3 CB,>A, | B,2 B,2 z4 | %58
w: Da, da mi- hi, Chri- ste|mi, Chri- ste mi, in te|re- qui- e- sce-|re,|in a- mo- re|tu- o,|
 z2 C3 ED>C | B,2 B,2 z4 | z4 z E2 D/E/ | C C2 B,/C/ A,>B, ^C2 | z D2 C/D/ B,>A,A,>B, | %63
w: in a- mo- re|tu- o,|o Chri- ste|mi, o Chri- ste mi, * *|o Chri- ste mi, ut dis- cam|
 ^G,2 A,2 A,3 G, | A,4 z4 | z8 | z4 z C2 B,/C/ | A,4 z A,A,>A, | B,2 C/D/B,/C/ D>ED>E | F4 E4 | %70
w: de- gus- ta- *|re,||o Chri- ste|mi, ut dis- cam|de- gus- * * * ta- * * *|* re,|
 z4 z2 D/C/D/C/ | B,2 B,2 z4 | z4 z2 F/E/F/E/ | D2 D2 z4 | z2 E/D/E/D/ ^C2 C2 | z4 z2 D2- | %76
w: a- * * *|ma- re,|a- * * *|ma- re,|a- * * * ma- re,|quam|
 DC D/C/ D/C/ B,4 | z4 z2 F2- | FE F/E/ F/E/ D4 | z2 E3 D E/D/ E/D/ | ^C4 z4 | z2 D3 C D/C/ D/C/ | %82
w: * su- a- * ve * sit,|quam|* su- a- * ve * sit,|quam su- a- * ve *|sit,|quam su- a- * ve *|
 B,2 B,3 A, B,/A,/ B,/A,/ | ^G,6 ^F,/G,/A,/B,/ | ^G,A,/B,/ A,4 G,2 | A,4 z2 B,>B, | %86
w: sit, quam su- a- * ve *|sit a- * * *|* * * ma- *|re. Al- le-|
 E>EC>C B,2 G,2 | z2 z A,/G,/ ^F,/G,/A,/G,/ F,2 | E,4 z4 | z8 | z2 A,>A, B,>B,G,>G, | %91
w: lu- ya, al- le- lu- ya,|al- le- lu- ya, al- le- lu-|ya,||al- le- lu- ya, al- le-|
 A,2 ^F,2 z G,/=F,/ E,/F,/G,/E,/ | F,2 D,2 z2 E>E | F>FD>D E2 C2 | z D/C/ B,/C/D/B,/ C2 A,2 | %95
w: lu- ya, al- le- lu- ya, al- le-|lu- ya, al- le-|lu- ya, al- le- lu- ya,|al- le- lu- ya, al- le- lu- ya,|
 z2 D>D E>EC>C | D2 B,2 z C/B,/ A,/B,/C/A,/ | B,2 G,2 z4 | z C/B,/ A,/B,/C/A,/ A,3 ^G, | A,8 | z8 | %101
w: al- le- lu- ya, al- le-|lu- ya, al- le- lu- ya, al- le-|lu- ya,|al- le- lu- ya, al- le- lu- *|ya.||
 z8 | z8 |] %103
w: ||
V:3
 z8 | z8 | z8 | z8 | z8 | z8 | z8 | z8 | z8 | z8 | z8 | z A,,/B,,/^C,B,,/A,,/ D,2 z2 | z8 | %13
w: |||||||||||O, * * * * *||
 z A,,/B,,/^C,B,,/A,,/ E, E,/^F,/^G,F,/E,/ | A,B,/C/ DA,/B,/ ^G,4 | z A,E,E,/A,/ ^F,2 F,2 | %16
w: O, * * * * * o * * * *||so- la- men, so- la- men,|
 z4 z B,^F,F,/B,/ | ^G,2 G,2 z A,,/B,,/^C,B,,/A,,/ | D, D,/E,/^F,E,/D,/ G,2 z2 | %19
w: so- la- men, so-|la- men, o, * * * *|* o, * * * * *|
 z C,/D,/E,D,/C,/ F,2 z2 | z D,A,,A,,/D,/ B,,2 B,,2 | z C,/D,/E,D,/C,/ F, F,/G,/A,G,/F,/ | C4 z4 | %23
w: o, * * * * *|so- la- men, so- la- men,|o, * * * * * o, * * * *||
 z D,/E,/^F,E,/D,/ A,4 | z D,D,>D, E,2 E,>F, | G,8 | C,8 |[M:3/4] z6 | z C,/B,,/ C,>D, E,>F, | %29
w: o, * * * * *|so- la- men a- ni- mae|me-|ae,||ve- ni, ve- ni, ve- ni|
 G,2 G,2 z2 | z D,/^C,/ D,>E, F,>G, | A,2 A,2 z2 | z E,/^D,/ E,>^F, G,>A, | B,4 B,2 | %34
w: Ie- su,|ve- ni, ve- ni, ve- ni|Ie- su,|ve- ni, ve- ni, ve- ni|Ie- su,|
 ^G,>C B,>G, A,2 | ^F,>B, A,>F, G,2 | E,>E, F,F, D,>D, | G,/A,/F,/G,/ E,/F,/D,/E,/ C,C, | z6 | %39
w: qui- a si- ne te,|qui- a si- ne te|nul- la e- rit lae- ta|di- * * * * * * * * es,||
 B,,>B,, C,C, A,,>A,, | D,/E,/C,/D,/ B,,/C,/A,,/B,,/ G,,G,, | z G,/G,/ CC/>B,/ A,A,/>G,/ | %42
w: nul- la e- rit lae- ta|di- * * * * * * * * es,|Ve- ni, ve- ni lae- ti- ti- a|
 F,>G, A,/G,/A,/F,/ G,/F,/G,/G,,/ | C, C2 B, C2 | G, A,2 ^G, A,2 | E, F,2 E, F,2 | %46
w: me- * * * * * * * * *|a, ve- ni, ve-|ni, ve- ni, ve-|ni, ve- ni, ve-|
 C,C,>C,F,, G,,G,, |[M:2/2] z4 G,F,/G,/E,F,/G,/ | A,4- A,G,/A,/F,G,/A,/ | _B,6 A,>G, | A,8 | %51
w: ni gau- di- um me- um,|gau- * * * * *||* di- um|me-|
 D,4 z4 | z8 | z8 | z8 | z2 D,3 F, E,/F,/D, | A,4 z4 | z2 G,3 B, A,/B,/G, | C4 z4 | %59
w: um.||||et di- la- * ta|me,|et di- la- * ta|me,|
 z G,2 F,/G,/ E,>D,D,>C, | C,2 B,,2 A,,2 ^G,,2 | z A,2 G,/A,/ F, F,2 E,/F,/ | D,2 z2 z4 | %63
w: o Chri- ste mi, ut dis- cam|de- gus- ta- re,|o Chri- ste mi, o Chri- ste|mi,|
 z4 z E,2 D,/E,/ | C, C,2 B,,/C,/ A,, A,2 G,/A,/ | F,>E,E,>D, D,/E,/F,/G,/ A,/B,/C/A,/ | %66
w: o Chri- ste|mi, o Chri- ste mi, o Chri- ste|mi, ut dis- cam de- * * * * * * *|
 B,C C>B, C4 | z F,2 E,/F,/ D,>C,C,>B,, | B,,>A,, A,,4 ^G,,2 | A,,4 z2 A,2- | %70
w: * gus- ta- * re,|o Chri- ste mi, ut dis- cam|de- gus- ta- *|re, quam|
 A,^G, A,/=G,/ A,/G,/ ^F,4 | z4 z2 C2- | CB, C/B,/ C/B,/ A,4 | z2 _B,3 A, B,/A,/ B,/A,/ | %74
w: * su- a- * ve * sit,|quam|* su- a- * ve * sit,|quam su- a- * ve *|
 G,4 z2 A,2- | A,^G, A,/=G,/ A,/G,/ ^F,4 | z8 | z2 C/B,/C/B,/ A,2 A,2 | z4 z2 _B,/A,/B,/A,/ | %79
w: sit, quam|* su- a- * ve * sit||a- * * * ma- re,|a- * * *|
 G,2 G,2 z4 | z2 A,3 ^G, A,/=G,/ A,/G,/ | ^F,4 z4 | z2 G,3 ^F, G,/=F,/ G,/F,/ | E,6 ^D,2 | E,8 | %85
w: ma- re,|quam su- a- * ve *|sit,|quam su- a- * ve *|sit a-|ma-|
 A,,4 z4 | E,>E,F,F, D,>D, E,2 | C,2 z2 z4 | z2 E,>E, F,F,D,>D, | E,2 C,2 z D,/C,/ B,,/C,/D,/B,,/ | %90
w: re.|Al- le- lu- ya, al- le- lu-|ya,|al- le- lu- ya, al- le-|lu- ya, al- le- lu- ya, al- le-|
 C,2 A,,2 z2 z E,/D,/ | C,/D,/E,/C,/ D,2 B,,2 x2 | z A,/G,/ ^F,/G,/A,/F,/ G,2 E,2 | %93
w: lu- ya, al- le-|lu- ya, al- le- lu- ya,|al- le- lu- ya, al- le- lu- ya,|
 z2 z G,/F,/ E,/F,/G,/E,/ A,2 | D,2 z G,/F,/ E,/F,/G,/E,/ F,2 | D,2 z2 z4 | z2 G,>G, A,A,F,>F, | %97
w: al- le- lu- ya, al- le- lu-|ya, al- le- lu- ya, al- le- lu-|ya,|al- le- lu- ya, al- le-|
 G,2 E,2 z F,/E,/ D,/E,/F,/D,/ | E,8 | A,,8 | z8 | z8 | z8 |] %103
w: lu- ya, al- le- lu- ya, al- le-|lu-|ya.||||
V:4
 z8 | A,,8 | ^G,,4 A,,4 | E,,2 ^F,,2 G,,2 A,,2 | B,,2 ^C,2 ^D,4 | E,4 B,,3 A,, | ^G,,4 ^F,,4 | %7
w: ||6 *|y * * *|* * ^x|* %x~X *|6 6|
 E,,2 ^F,,2 G,,2 E,,2 | D,,4 G,,2 C,B,, | A,,3 B,, C,2 D,2 | E,2 C,2 D,2 E,2 | A,,4 D,4 | %12
w: 6 6 * 6|x * * *||x 6 ^5 x|x x|
 ^C,4 B,,2 _B,,2 | A,,4 ^G,,4 | ^F,,2 =F,,2 E,,4 | A,,4 ^F,4 | E,4 B,,4 | E,4 A,,4 | D,4 G,,4 | %19
w: 6 7 6|x 6|7 6 x|x 6|y %x~X|x x|x *|
 C,4 F,,2 E,,2 | D,,4 G,,4 | C,4 F,4 | C,4 G,4 | D,4 A,,4 | D,4 E,3 F, | G,8 | C,8 |[M:3/4] C,6 | %28
w: * * 6|y *|||x x|y * *||||
 C,3 D,E,>F, | G,6 | D,3 E,F,>G, | A,6 | E,3 ^F,G,A, | B,4 B,,2 | E,4 A,,2 | D,4 G,2 | %36
w: ||||||x *|x *|
 E,2 F,2 D,2 | G,F,E,D, C,2 | A,2 D,2 G,F, | B,,2 C,2 A,,2 | D,C,B,,>A,,G,,>F,, | E,,4 F,,2- | %42
w: ||* * * 6||* 6 * * * *||
 F,,4 G,,2 | C, C,2 G, C,2 | G, A,2 ^G, A,2 | E, F,2 E, F,2 | C,3 F,, G,,2 |[M:2/2] G,6 E,2 | %48
w: ||* * 6 *|5 * 6 *|||
 A,6 F,2 | _B,6 A,>G, | A,8 | D,8 | A,,8 | E,8 | A,8 | D,2 D,3 F,E,D, | A,8 | G,2 G,3 B,A,G, | %58
w: ||||y|y|||||
 C4 C,4 | G,3 F, E,2 D,2 | C,2 B,,2 A,,2 ^G,,2 | A,,2 A,G, F,3 E, | D,2 E,F, G,2 A,2 | %63
w: |* * * 6|* 6 * 6|||
 E,2 D,2 E,4 | A,,2 G,,2 F,,2 E,,2 | F,,2 A,,2 G,,2 F,,2 | G,,4 C,4 | F,3 E, D,2 C,2 | %68
w: ||||* * * 6|
 B,,2 A,,4 ^G,,2 | A,,8 | A,,2 ^C,2 D,4 | G,4 C,3 D, | E,4 F,4 | _B,6 B,A, | G,2 E,2 A,2 A,,2- | %75
w: ||x 6 x||6 *||y * x *|
 A,,B,, ^C,2 D,4 | G,2 G,,3 A,, B,,2 | C,4 F,3 G, | A,4 _B,3 A, | G,4 E,4 | A,,2 A,,4 A,>G, | %81
w: * 6~x 6 x|* * 6~x 6||6 * *||x x * *|
 ^F,4 D,4 | G,6 G,>F, | E,6 ^D,2 | E,8 | A,,2 A,2 F,2 G,2 | E,2 F,2 D,2 E,2 | C,2 A,,2 B,,4 | %88
w: 6 x||||* * 6 *|6 * 6 x|6 * %4~X|
 E,,2 E,2 F,2 D,2 | E,2 C,2 D,2 B,,2 | C,2 A,,2 D,2 E,2 | C,2 D,2 B,,2 C,2 | F,,2 D,2 G,2 C,2 | %93
w: * * 6 *|x 6 * 6|* * 6 *|6 x 6 *|* x * *|
 D,2 G,,2 C,2 A,,2 | D,2 G,2 E,2 F,2 | D,2 G,2 E,2 F,2 | D,2 G,2 A,2 F,2 | G,2 E,2 F,2 D,2 | E,8 | %99
w: |* * 6 *|* * 6 *|* 6 * 6|* 6 * 6||
 A,,8 | z8 | z8 | z8 |] %103
w: x||||

